Teal Orange 01 - Classic.cube
#Created by: Adobe Photoshop Export Color Lookup Plugin
#Copyright: (C) Copyright 2019 Nicolesy
TITLE "Teal Orange 01 - Classic"
#LUT size
LUT_3D_SIZE 32
#data domain
DOMAIN_MIN 0.0 0.0 0.0
DOMAIN_MAX 1.0 1.0 1.0
#LUT data points
0.000000 0.000000 0.000000
0.024384 0.000519 0.000427
0.050140 0.000763 0.000671
0.076416 0.001312 0.001129
0.104187 0.001770 0.001465
0.132751 0.002350 0.001923
0.162445 0.002960 0.002380
0.193024 0.003662 0.002899
0.224548 0.004456 0.003510
0.256897 0.005249 0.004028
0.289886 0.006195 0.004669
0.323486 0.007111 0.005310
0.357544 0.008087 0.005890
0.391785 0.009186 0.006592
0.426208 0.010315 0.007263
0.460510 0.011597 0.008209
0.495148 0.013031 0.009369
0.530090 0.014557 0.010559
0.564606 0.016144 0.011932
0.598297 0.017792 0.013306
0.631287 0.019653 0.014801
0.663300 0.021545 0.016388
0.694489 0.023376 0.017975
0.724762 0.025482 0.019714
0.754242 0.027466 0.021454
0.782806 0.029602 0.023224
0.810455 0.031738 0.024994
0.836670 0.033813 0.026703
0.862244 0.035828 0.028351
0.887390 0.038025 0.030212
0.912018 0.040253 0.032013
0.936279 0.042480 0.033936
0.001434 0.021393 0.000977
0.026398 0.022247 0.001770
0.053253 0.022644 0.002625
0.080963 0.023193 0.003998
0.111603 0.022675 0.006897
0.146820 0.020325 0.012451
0.182343 0.018555 0.017548
0.213806 0.019806 0.018585
0.246063 0.021118 0.019714
0.278931 0.022491 0.020813
0.312378 0.023865 0.021912
0.346497 0.025391 0.023102
0.380768 0.026947 0.024261
0.415192 0.028595 0.025604
0.449432 0.030365 0.027161
0.483490 0.032196 0.028778
0.517975 0.034210 0.030548
0.552734 0.036194 0.032257
0.586823 0.038330 0.034149
0.620117 0.040527 0.036041
0.652496 0.042725 0.037933
0.683990 0.045013 0.039948
0.714630 0.047272 0.041870
0.744324 0.049591 0.043793
0.773163 0.051941 0.045685
0.800232 0.054016 0.047363
0.826599 0.056213 0.049072
0.852356 0.058350 0.050812
0.877594 0.060608 0.052704
0.902252 0.062775 0.054443
0.926605 0.065186 0.056488
0.950470 0.067474 0.058441
0.011871 0.042480 0.000000
0.029541 0.047394 0.002441
0.054901 0.049377 0.003235
0.082306 0.050995 0.004456
0.111389 0.052368 0.005676
0.142120 0.053467 0.007538
0.173950 0.054779 0.009583
0.207672 0.055481 0.012512
0.243225 0.055542 0.016266
0.281433 0.054535 0.021881
0.324341 0.051025 0.031403
0.370056 0.045990 0.043549
0.404327 0.048157 0.045532
0.438568 0.050354 0.047546
0.472900 0.052612 0.049591
0.506805 0.054932 0.051697
0.541107 0.057312 0.053864
0.575470 0.059784 0.056061
0.609009 0.062317 0.058258
0.641846 0.064850 0.060486
0.673706 0.067383 0.062653
0.704529 0.069855 0.064697
0.734558 0.072296 0.066772
0.762726 0.074493 0.068420
0.790039 0.076691 0.070129
0.816620 0.078949 0.071777
0.842529 0.081146 0.073578
0.867828 0.083405 0.075409
0.892578 0.085724 0.077332
0.916901 0.088043 0.079224
0.940826 0.090393 0.081207
0.964417 0.092773 0.083160
0.012756 0.071259 0.000519
0.032593 0.076172 0.003326
0.058228 0.078949 0.004517
0.085602 0.081604 0.005676
0.114349 0.084167 0.006775
0.144562 0.086609 0.008118
0.175751 0.089172 0.009583
0.209045 0.091064 0.011810
0.243164 0.093048 0.014130
0.278320 0.094788 0.017059
0.314056 0.096466 0.020477
0.350983 0.097656 0.024719
0.389343 0.097992 0.030151
0.428711 0.097687 0.036804
0.469055 0.096344 0.044861
0.511536 0.093109 0.055908
0.564240 0.082062 0.078827
0.598145 0.084808 0.081177
0.631256 0.087494 0.083588
0.663452 0.090240 0.085876
0.694702 0.092834 0.088043
0.724121 0.095154 0.089722
0.752472 0.097412 0.091309
0.779907 0.099579 0.092957
0.806702 0.101868 0.094727
0.832764 0.104187 0.096558
0.858185 0.106415 0.098267
0.883026 0.108734 0.100250
0.907379 0.111084 0.102142
0.931213 0.113464 0.104126
0.954834 0.115814 0.105865
0.967560 0.125519 0.115021
0.017670 0.101593 0.000763
0.036346 0.108276 0.004303
0.061432 0.112396 0.005646
0.089050 0.115936 0.006897
0.118134 0.119202 0.007996
0.148590 0.122528 0.009521
0.180328 0.125763 0.011047
0.212982 0.128815 0.012848
0.246582 0.131958 0.015045
0.281219 0.134735 0.017792
0.316437 0.137268 0.020691
0.352264 0.139832 0.023926
0.389130 0.141846 0.027893
0.425873 0.143616 0.031860
0.462616 0.145386 0.036163
0.500305 0.146057 0.041718
0.538269 0.146606 0.047485
0.577515 0.146301 0.054535
0.616394 0.145172 0.062653
0.655029 0.141876 0.072998
0.693604 0.136475 0.085724
0.742157 0.120392 0.114258
0.769867 0.122620 0.115967
0.796844 0.124939 0.117798
0.823059 0.127228 0.119537
0.848602 0.129517 0.121338
0.873566 0.131866 0.123291
0.897919 0.134155 0.125092
0.921875 0.136536 0.126831
0.945435 0.138824 0.128479
0.967529 0.142059 0.130920
0.967499 0.160675 0.148773
0.025024 0.134186 0.000519
0.041260 0.143097 0.005219
0.065918 0.148468 0.007111
0.093262 0.153198 0.008514
0.122772 0.157227 0.009766
0.153259 0.161285 0.011108
0.184570 0.165527 0.012848
0.217560 0.169159 0.015015
0.251312 0.172791 0.017212
0.285583 0.176361 0.019653
0.320831 0.179535 0.022461
0.356415 0.182617 0.025269
0.392548 0.185394 0.028473
0.429077 0.187714 0.032135
0.465240 0.190125 0.035614
0.501587 0.191681 0.039825
0.538666 0.193115 0.044220
0.575409 0.193848 0.049011
0.610596 0.193817 0.053986
0.645325 0.193329 0.059601
0.679199 0.192596 0.065857
0.712280 0.191528 0.072418
0.745239 0.189575 0.080475
0.777649 0.186859 0.089417
0.810577 0.182587 0.100769
0.844543 0.176147 0.115570
0.888641 0.157318 0.147858
0.912598 0.159637 0.149475
0.936066 0.161957 0.151001
0.959229 0.164276 0.152527
0.967499 0.177032 0.164337
0.967560 0.195526 0.181824
0.031158 0.170563 0.000458
0.046692 0.181030 0.006042
0.070557 0.187683 0.008514
0.098419 0.192902 0.010040
0.127380 0.197845 0.011871
0.158295 0.202454 0.013641
0.190125 0.206909 0.015564
0.222992 0.211151 0.017609
0.256866 0.215240 0.019928
0.291473 0.219055 0.022369
0.326630 0.222656 0.024933
0.362274 0.225830 0.027710
0.398499 0.228699 0.030823
0.434448 0.231476 0.033722
0.470703 0.233673 0.037140
0.505432 0.235291 0.040405
0.540436 0.236115 0.044037
0.575836 0.236877 0.048004
0.610352 0.237518 0.052216
0.643860 0.237915 0.056610
0.676788 0.238098 0.061371
0.708740 0.238098 0.066528
0.739899 0.237732 0.072205
0.770264 0.237183 0.078186
0.800110 0.236237 0.084625
0.829407 0.234680 0.091827
0.858032 0.233032 0.099152
0.886505 0.230530 0.107727
0.915222 0.227112 0.117676
0.944550 0.222260 0.129517
0.967621 0.220032 0.153656
0.967804 0.230133 0.214264
0.037903 0.209473 0.000580
0.052948 0.220917 0.006866
0.076752 0.228516 0.010132
0.103638 0.234772 0.012543
0.133270 0.240082 0.014526
0.164032 0.245117 0.016541
0.196289 0.249756 0.018555
0.229553 0.254211 0.020874
0.263397 0.258423 0.023010
0.298340 0.262115 0.025482
0.333832 0.265686 0.028107
0.369629 0.268890 0.030792
0.405579 0.271698 0.033386
0.440796 0.273651 0.036316
0.475067 0.274933 0.039154
0.508514 0.276306 0.042023
0.543182 0.277252 0.045319
0.578094 0.278320 0.048920
0.612183 0.279266 0.052704
0.645264 0.280029 0.056702
0.677582 0.280579 0.060913
0.708771 0.281067 0.065369
0.739227 0.281311 0.070007
0.768890 0.281372 0.074829
0.797729 0.281219 0.080078
0.825714 0.280945 0.085327
0.853058 0.280426 0.090973
0.879852 0.279694 0.096954
0.906281 0.278625 0.103394
0.932404 0.277100 0.110352
0.958435 0.275238 0.117889
0.968140 0.283875 0.141541
0.045258 0.250031 0.000854
0.058990 0.262939 0.008362
0.082489 0.271057 0.012268
0.110077 0.277405 0.015106
0.139465 0.283264 0.017487
0.170898 0.288300 0.019653
0.203339 0.292999 0.021912
0.236786 0.297394 0.024261
0.271179 0.301422 0.026550
0.306366 0.304962 0.028992
0.341980 0.308105 0.031464
0.377106 0.310425 0.033905
0.411438 0.312012 0.036377
0.445557 0.313568 0.039001
0.479492 0.314941 0.041779
0.512695 0.316406 0.044495
0.546875 0.317535 0.047577
0.581635 0.318756 0.051025
0.615417 0.319672 0.054688
0.648041 0.320648 0.058350
0.679993 0.321289 0.062195
0.710785 0.321930 0.066193
0.740723 0.322510 0.070221
0.769623 0.322937 0.074341
0.797913 0.323120 0.078949
0.825165 0.323486 0.083466
0.851776 0.323364 0.088196
0.877838 0.323090 0.093292
0.903259 0.322906 0.098480
0.928223 0.322449 0.103912
0.952789 0.321838 0.109497
0.968628 0.326569 0.125031
0.052490 0.292206 0.001862
0.066711 0.305267 0.009918
0.088867 0.314362 0.014862
0.116638 0.320892 0.018036
0.146393 0.326569 0.020660
0.178253 0.331512 0.023132
0.211090 0.335999 0.025482
0.244934 0.339905 0.027771
0.279877 0.343414 0.030243
0.314362 0.345978 0.032379
0.348541 0.347839 0.034698
0.382629 0.349670 0.037048
0.416992 0.351135 0.039673
0.450989 0.352783 0.042145
0.484467 0.354156 0.044800
0.517700 0.355408 0.047546
0.551636 0.356567 0.050690
0.585999 0.357788 0.053925
0.619446 0.358856 0.057312
0.651886 0.359833 0.060638
0.683258 0.360626 0.064209
0.713776 0.361389 0.067871
0.743256 0.362061 0.071625
0.771790 0.362610 0.075531
0.799438 0.363129 0.079529
0.826202 0.363586 0.083588
0.852295 0.363800 0.087860
0.877716 0.363983 0.092377
0.902435 0.364105 0.096893
0.926697 0.364136 0.101654
0.950378 0.364075 0.106384
0.969238 0.366730 0.117432
0.059998 0.334900 0.003235
0.074310 0.347992 0.011902
0.097046 0.356873 0.017334
0.124268 0.363647 0.021057
0.154236 0.369141 0.024109
0.186707 0.373657 0.026703
0.220001 0.377502 0.029114
0.253448 0.380402 0.031403
0.287018 0.382568 0.033600
0.320892 0.384399 0.035919
0.354980 0.386169 0.038239
0.389069 0.387848 0.040558
0.423187 0.389374 0.043121
0.457001 0.390839 0.045685
0.490417 0.392181 0.048370
0.523285 0.393341 0.051117
0.556976 0.394501 0.054047
0.591125 0.395660 0.057037
0.624298 0.396790 0.060272
0.656311 0.397736 0.063477
0.687408 0.398560 0.066895
0.717407 0.399506 0.070312
0.746460 0.400177 0.073792
0.774658 0.400818 0.077454
0.801788 0.401489 0.081146
0.828247 0.401978 0.084991
0.853729 0.402435 0.088928
0.878601 0.402863 0.092957
0.902832 0.403229 0.097137
0.926514 0.403534 0.101410
0.949707 0.403687 0.105743
0.969971 0.405487 0.113739
0.067810 0.377411 0.004913
0.082886 0.389954 0.013916
0.105072 0.398834 0.020050
0.132965 0.405029 0.024048
0.163300 0.409973 0.027374
0.194855 0.413452 0.029999
0.227264 0.415863 0.032471
0.260437 0.417999 0.034882
0.293854 0.420013 0.037140
0.327789 0.421783 0.039551
0.361969 0.423431 0.041931
0.396027 0.425049 0.044403
0.429993 0.426392 0.046936
0.463776 0.427795 0.049530
0.496796 0.429047 0.052063
0.529480 0.430176 0.054718
0.562775 0.431335 0.057526
0.596710 0.432404 0.060516
0.629547 0.433502 0.063599
0.661255 0.434479 0.066681
0.692078 0.435394 0.069916
0.721680 0.436249 0.073181
0.750397 0.436981 0.076538
0.778046 0.437714 0.079987
0.804871 0.438385 0.083496
0.830750 0.439056 0.087036
0.855957 0.439545 0.090820
0.880310 0.440125 0.094574
0.904083 0.440582 0.098450
0.927216 0.441071 0.102417
0.949860 0.441528 0.106506
0.970825 0.442719 0.112579
0.077515 0.418213 0.006592
0.092224 0.430359 0.016235
0.114716 0.438629 0.022766
0.141541 0.443970 0.027283
0.171265 0.447266 0.030548
0.202362 0.450043 0.033386
0.234619 0.452484 0.035950
0.267761 0.454498 0.038452
0.301361 0.456329 0.040894
0.335236 0.458038 0.043335
0.369446 0.459564 0.045898
0.403473 0.460999 0.048462
0.437286 0.462372 0.050903
0.470703 0.463623 0.053253
0.503693 0.464783 0.055908
0.536011 0.465881 0.058472
0.569061 0.467010 0.061188
0.602753 0.468048 0.064117
0.635193 0.469025 0.067108
0.666779 0.469940 0.070221
0.697144 0.470825 0.073303
0.726349 0.471680 0.076416
0.754700 0.472443 0.079681
0.781982 0.473236 0.082947
0.808411 0.473938 0.086304
0.833862 0.474640 0.089783
0.858551 0.475311 0.093262
0.882507 0.475952 0.096893
0.905823 0.476624 0.100464
0.928528 0.477234 0.104248
0.951172 0.477448 0.107269
0.973358 0.477722 0.110535
0.087067 0.457520 0.008759
0.102142 0.467865 0.018433
0.123291 0.474854 0.025360
0.149506 0.479553 0.030212
0.179016 0.482849 0.033783
0.210358 0.485443 0.036865
0.242767 0.487579 0.039612
0.275757 0.489655 0.042328
0.309418 0.491425 0.044861
0.343445 0.492981 0.047455
0.377594 0.494354 0.049896
0.411377 0.495758 0.052338
0.445129 0.497009 0.054810
0.478424 0.498138 0.057312
0.511108 0.499176 0.059814
0.543060 0.500275 0.062378
0.575836 0.501221 0.065033
0.609222 0.502228 0.067932
0.641418 0.503204 0.070892
0.672485 0.504181 0.073761
0.702454 0.505005 0.076843
0.731445 0.505829 0.079895
0.759308 0.506592 0.083008
0.786285 0.507446 0.086273
0.812225 0.508209 0.089478
0.837372 0.508972 0.092834
0.861603 0.509705 0.096161
0.885101 0.510529 0.099609
0.908417 0.510956 0.102417
0.931641 0.511169 0.104309
0.954346 0.511230 0.106171
0.976227 0.511353 0.108765
0.096283 0.492767 0.011017
0.111145 0.502258 0.020874
0.132080 0.509094 0.028107
0.158508 0.513550 0.033203
0.187653 0.516876 0.037140
0.218811 0.519470 0.040497
0.251160 0.521637 0.043457
0.284393 0.523468 0.046326
0.318146 0.525055 0.048828
0.351868 0.526550 0.051392
0.385925 0.527893 0.053894
0.419739 0.529114 0.056366
0.453247 0.530304 0.058868
0.486359 0.531311 0.061249
0.518799 0.532349 0.063873
0.550354 0.533325 0.066223
0.582855 0.534302 0.068909
0.615936 0.535217 0.071777
0.647888 0.536133 0.074646
0.678589 0.537048 0.077576
0.708221 0.537933 0.080566
0.736755 0.538788 0.083557
0.764252 0.539612 0.086609
0.790771 0.540405 0.089722
0.816284 0.541260 0.092896
0.841003 0.542053 0.096100
0.865265 0.542755 0.098877
0.889343 0.543121 0.100464
0.912659 0.543396 0.102020
0.935303 0.543732 0.103577
0.957550 0.543915 0.105225
0.978882 0.544159 0.107422
0.105957 0.526062 0.013367
0.120667 0.535278 0.023376
0.141602 0.541870 0.031006
0.167694 0.546295 0.036346
0.196747 0.549591 0.040680
0.228027 0.552063 0.044342
0.260315 0.554077 0.047363
0.293396 0.555878 0.050140
0.327148 0.557434 0.052826
0.361053 0.558716 0.055481
0.394867 0.560059 0.057922
0.428589 0.561218 0.060516
0.461975 0.562195 0.062927
0.494690 0.563232 0.065338
0.526825 0.564178 0.067810
0.558136 0.565094 0.070312
0.590271 0.565979 0.072998
0.622925 0.566925 0.075745
0.654541 0.567810 0.078613
0.684937 0.568726 0.081482
0.714172 0.569611 0.084381
0.742340 0.570435 0.087372
0.769409 0.571259 0.090363
0.795502 0.572174 0.093384
0.821014 0.572937 0.096130
0.846130 0.573547 0.097504
0.870453 0.574097 0.098907
0.894012 0.574554 0.100220
0.916748 0.575043 0.101562
0.938995 0.575348 0.102966
0.960663 0.575623 0.104340
0.981384 0.576233 0.106750
0.116089 0.557800 0.015900
0.131042 0.566589 0.026062
0.151794 0.572998 0.033997
0.177521 0.577332 0.039795
0.206390 0.580627 0.044250
0.237457 0.583038 0.047943
0.269958 0.584961 0.051208
0.302979 0.586639 0.054016
0.336670 0.588104 0.056854
0.370514 0.589355 0.059479
0.404327 0.590485 0.062042
0.437683 0.591644 0.064514
0.470917 0.592621 0.067047
0.503387 0.593536 0.069458
0.535187 0.594452 0.071899
0.566223 0.595276 0.074432
0.597778 0.596191 0.077026
0.630188 0.597015 0.079773
0.661377 0.597931 0.082611
0.691315 0.598846 0.085480
0.720184 0.599701 0.088318
0.748016 0.600616 0.091309
0.775146 0.601379 0.094116
0.801605 0.602203 0.095276
0.827057 0.602966 0.096497
0.851654 0.603638 0.097656
0.875488 0.604279 0.098907
0.898499 0.604797 0.100006
0.920837 0.605347 0.101257
0.942596 0.605804 0.102478
0.963806 0.606354 0.103668
0.983643 0.607269 0.106964
0.126953 0.587769 0.018555
0.141693 0.596222 0.028931
0.162384 0.602356 0.037018
0.187714 0.606781 0.043152
0.216675 0.609894 0.047791
0.247711 0.612244 0.051666
0.279846 0.614197 0.054993
0.312927 0.615814 0.057983
0.346497 0.617218 0.060791
0.380188 0.618378 0.063477
0.413879 0.619446 0.066101
0.447266 0.620422 0.068573
0.480072 0.621399 0.071106
0.512299 0.622314 0.073639
0.543732 0.623138 0.075958
0.574158 0.624023 0.078430
0.605530 0.624817 0.080994
0.637543 0.625671 0.083832
0.668304 0.626587 0.086639
0.697906 0.627533 0.089447
0.726898 0.628326 0.092377
0.754913 0.629303 0.093475
0.781860 0.630249 0.094604
0.807892 0.631073 0.095673
0.832886 0.631866 0.096680
0.856964 0.632599 0.097748
0.880280 0.633301 0.098785
0.902863 0.633942 0.099823
0.924744 0.634705 0.100861
0.945862 0.635406 0.101898
0.966461 0.636017 0.102997
0.985565 0.637054 0.107361
0.137817 0.616455 0.021606
0.153107 0.624359 0.031830
0.173645 0.630432 0.040131
0.198822 0.634705 0.046356
0.227509 0.637756 0.051270
0.258301 0.640106 0.055328
0.290527 0.641968 0.058777
0.323486 0.643494 0.061859
0.356903 0.644836 0.064758
0.390442 0.646027 0.067474
0.423950 0.647064 0.070129
0.456909 0.648102 0.072662
0.489532 0.648987 0.075104
0.521423 0.649902 0.077637
0.552460 0.650726 0.080109
0.582428 0.651550 0.082520
0.613403 0.652313 0.085175
0.645020 0.653290 0.087952
0.675995 0.654114 0.090729
0.705841 0.655212 0.092041
0.734558 0.656281 0.093048
0.762054 0.657257 0.094055
0.788544 0.658203 0.094940
0.813965 0.659119 0.095917
0.838470 0.660004 0.096802
0.862152 0.660706 0.097687
0.885010 0.661713 0.098694
0.906891 0.662537 0.099609
0.928040 0.663330 0.100464
0.948761 0.664062 0.101440
0.969086 0.664703 0.102417
0.987396 0.665833 0.108429
0.149750 0.643646 0.024475
0.164948 0.651306 0.034882
0.185120 0.657227 0.043274
0.210236 0.661377 0.049713
0.238708 0.664490 0.054810
0.269470 0.666718 0.058899
0.301361 0.668671 0.062561
0.334473 0.670135 0.065796
0.367584 0.671478 0.068756
0.401001 0.672577 0.071503
0.434296 0.673645 0.074219
0.467010 0.674591 0.076752
0.499298 0.675476 0.079285
0.530823 0.676361 0.081757
0.561279 0.677246 0.084259
0.590881 0.678070 0.086609
0.622070 0.678864 0.089386
0.653992 0.680054 0.090790
0.684418 0.681244 0.091797
0.713745 0.682404 0.092621
0.741913 0.683533 0.093567
0.769012 0.684479 0.094452
0.794952 0.685486 0.095276
0.819977 0.686462 0.096039
0.844025 0.687500 0.096893
0.866913 0.688477 0.097656
0.888916 0.689423 0.098480
0.910339 0.690338 0.099365
0.931183 0.691101 0.100220
0.951599 0.691803 0.101013
0.971649 0.692444 0.101990
0.989105 0.693634 0.110077
0.161804 0.669861 0.027588
0.177124 0.677216 0.038025
0.197510 0.682739 0.046387
0.222351 0.686981 0.053101
0.250793 0.689941 0.058258
0.280975 0.692322 0.062683
0.312958 0.694122 0.066376
0.345673 0.695648 0.069672
0.378815 0.696960 0.072662
0.411926 0.698120 0.075531
0.444824 0.699158 0.078278
0.477295 0.700195 0.080841
0.509186 0.701050 0.083405
0.540314 0.701935 0.085968
0.571075 0.702789 0.088470
0.600769 0.703888 0.089691
0.631561 0.705170 0.090607
0.662689 0.706482 0.091522
0.692688 0.707733 0.092285
0.721497 0.708923 0.093140
0.749146 0.710052 0.093933
0.775757 0.711090 0.094635
0.801239 0.712280 0.095367
0.825470 0.713409 0.096100
0.848541 0.714417 0.096832
0.870880 0.715393 0.097565
0.892517 0.716339 0.098328
0.913574 0.717194 0.099121
0.934174 0.717987 0.099854
0.954285 0.718658 0.100677
0.974091 0.719513 0.101593
0.990662 0.721100 0.112823
0.174408 0.694855 0.030914
0.189941 0.701935 0.041199
0.210114 0.707367 0.049713
0.234802 0.711517 0.056580
0.262817 0.714508 0.061920
0.293060 0.716949 0.066437
0.324768 0.718750 0.070221
0.357269 0.720276 0.073547
0.390167 0.721588 0.076660
0.423035 0.722748 0.079620
0.455627 0.723785 0.082336
0.487793 0.724762 0.084961
0.519806 0.725677 0.087616
0.550842 0.727081 0.088806
0.580933 0.728363 0.089600
0.610291 0.729645 0.090454
0.640503 0.730988 0.091248
0.671295 0.732330 0.092041
0.700806 0.733551 0.092804
0.729004 0.734741 0.093475
0.756195 0.735992 0.094147
0.782043 0.737244 0.094788
0.806519 0.738434 0.095459
0.830017 0.739532 0.096100
0.852753 0.740631 0.096802
0.874695 0.741577 0.097504
0.896027 0.742462 0.098145
0.916779 0.743347 0.098907
0.937073 0.744263 0.099670
0.956909 0.745239 0.100677
0.976440 0.746246 0.101746
0.992096 0.747864 0.116425
0.187561 0.718842 0.034210
0.203247 0.725616 0.044464
0.223236 0.731049 0.053009
0.247711 0.735138 0.059998
0.275604 0.738159 0.065460
0.305756 0.740509 0.070038
0.337036 0.742432 0.074005
0.369263 0.744019 0.077484
0.401855 0.745361 0.080658
0.434570 0.746521 0.083618
0.467255 0.747589 0.086456
0.498749 0.749237 0.087585
0.529968 0.750702 0.088531
0.560638 0.752167 0.089447
0.590454 0.753571 0.090179
0.619476 0.754852 0.090942
0.649353 0.756195 0.091736
0.679565 0.757507 0.092438
0.708527 0.758942 0.093048
0.736267 0.760284 0.093689
0.762299 0.761566 0.094360
0.787292 0.762848 0.094910
0.811310 0.763916 0.095490
0.834442 0.765045 0.096130
0.856781 0.766083 0.096771
0.878418 0.766998 0.097382
0.899414 0.768036 0.097992
0.919830 0.769135 0.098938
0.939819 0.770142 0.099884
0.959473 0.771240 0.100861
0.978729 0.772400 0.101746
0.993408 0.773956 0.120850
0.201080 0.742004 0.037659
0.216827 0.748627 0.047882
0.236938 0.753937 0.056458
0.261383 0.757904 0.063385
0.288910 0.761017 0.069031
0.318481 0.763458 0.073883
0.349609 0.765381 0.077850
0.381714 0.766968 0.081421
0.414032 0.768433 0.084595
0.445831 0.770294 0.085968
0.477325 0.772095 0.087158
0.508789 0.773743 0.088196
0.539856 0.775330 0.089081
0.570251 0.776764 0.089905
0.599762 0.778168 0.090698
0.628479 0.779510 0.091309
0.657928 0.780945 0.091949
0.687592 0.782440 0.092590
0.715485 0.783844 0.093170
0.742157 0.785187 0.093781
0.767792 0.786469 0.094391
0.792328 0.787659 0.094940
0.815857 0.788788 0.095490
0.838623 0.789886 0.096130
0.860626 0.791016 0.096710
0.881927 0.792175 0.097504
0.902588 0.793335 0.098419
0.922791 0.794464 0.099274
0.942535 0.795624 0.100067
0.961884 0.796753 0.100861
0.980896 0.797943 0.101685
0.994598 0.799408 0.125916
0.215118 0.764435 0.041138
0.230896 0.770874 0.051331
0.251251 0.775940 0.059814
0.275330 0.779968 0.066895
0.302368 0.783173 0.072693
0.332001 0.785553 0.077484
0.362610 0.787781 0.081421
0.393036 0.790222 0.083435
0.424316 0.792328 0.085083
0.455811 0.794312 0.086456
0.487244 0.796143 0.087585
0.518616 0.797791 0.088623
0.549438 0.799408 0.089447
0.579590 0.800903 0.090179
0.608826 0.802368 0.090912
0.637207 0.803894 0.091583
0.665710 0.805359 0.092133
0.694305 0.806793 0.092712
0.721710 0.808197 0.093353
0.747894 0.809509 0.093903
0.773010 0.810760 0.094391
0.797150 0.811951 0.094940
0.820312 0.813110 0.095459
0.842682 0.814423 0.096283
0.864319 0.815613 0.097107
0.885315 0.816895 0.097900
0.905670 0.818085 0.098572
0.925598 0.819275 0.099365
0.945038 0.820557 0.100067
0.964172 0.821655 0.100769
0.983063 0.822906 0.101471
0.995667 0.824188 0.132294
0.229523 0.786194 0.044800
0.245636 0.792358 0.054688
0.265564 0.797485 0.063385
0.289490 0.801514 0.070526
0.316071 0.804901 0.075897
0.343506 0.808350 0.079224
0.372742 0.811127 0.081757
0.403320 0.813599 0.083801
0.434479 0.815796 0.085388
0.465912 0.817810 0.086731
0.497162 0.819672 0.087860
0.528229 0.821411 0.088837
0.558868 0.823090 0.089600
0.588654 0.824707 0.090363
0.617188 0.826324 0.091064
0.644775 0.827789 0.091705
0.672729 0.829224 0.092255
0.700836 0.830658 0.092804
0.727631 0.832001 0.093353
0.753387 0.833313 0.093933
0.778015 0.834595 0.094452
0.801697 0.835938 0.095154
0.824524 0.837311 0.095947
0.846588 0.838623 0.096680
0.867828 0.839844 0.097351
0.888519 0.841156 0.098083
0.908630 0.842377 0.098755
0.928253 0.843628 0.099365
0.947510 0.844910 0.099976
0.966400 0.846130 0.100464
0.985046 0.848053 0.101807
0.996613 0.849731 0.142334
0.244476 0.807312 0.048401
0.260742 0.813324 0.058228
0.279755 0.818817 0.066315
0.301483 0.823700 0.071747
0.326385 0.827759 0.075989
0.353821 0.831238 0.079315
0.383026 0.834137 0.081879
0.413269 0.836670 0.083923
0.444305 0.838928 0.085510
0.475647 0.841003 0.086914
0.506897 0.842957 0.087952
0.537750 0.844818 0.088959
0.567688 0.846558 0.089722
0.596832 0.848175 0.090454
0.624969 0.849701 0.091125
0.652100 0.851135 0.091644
0.679596 0.852600 0.092255
0.707092 0.854004 0.092834
0.733337 0.855438 0.093353
0.758606 0.856873 0.094116
0.782806 0.858246 0.094849
0.806122 0.859619 0.095581
0.828522 0.860992 0.096252
0.850250 0.862305 0.096893
0.871216 0.863678 0.097504
0.891571 0.864960 0.098083
0.911407 0.866241 0.098602
0.930786 0.867554 0.099152
0.949982 0.869385 0.100311
0.968750 0.871399 0.101898
0.987091 0.873566 0.103760
0.997498 0.874481 0.155945
0.258911 0.828369 0.051239
0.272614 0.835297 0.059326
0.290344 0.841217 0.066101
0.311707 0.846191 0.071625
0.336639 0.850342 0.075897
0.363953 0.853821 0.079224
0.393097 0.856781 0.081818
0.423218 0.859436 0.083923
0.454102 0.861847 0.085541
0.485260 0.864014 0.086823
0.516144 0.865997 0.087921
0.546478 0.867828 0.088928
0.576080 0.869537 0.089722
0.604797 0.871185 0.090454
0.632355 0.872681 0.091034
0.659119 0.874146 0.091705
