Teal Orange 01 - Classic.cube
#Created by: Adobe Photoshop Export Color Lookup Plugin
#Copyright: (C) Copyright 2019 Nicolesy
TITLE "Teal Orange 01 - Classic"
#LUT size
LUT_3D_SIZE 8
#data domain
#LUT data points
DOMAIN_MIN 0.000000 0.000000 0.000000
DOMAIN_MAX 0.903226 0.903226 0.903226
0.000000 0.000000 0.000000
0.104187 0.001770 0.001465
0.224548 0.004456 0.003510
0.357544 0.008087 0.005890
0.495148 0.013031 0.009369
0.631287 0.019653 0.014801
0.754242 0.027466 0.021454
0.862244 0.035828 0.028351
0.017670 0.101593 0.000763
0.118134 0.119202 0.007996
0.246582 0.131958 0.015045
0.389130 0.141846 0.027893
0.538269 0.146606 0.047485
0.693604 0.136475 0.085724
0.823059 0.127228 0.119537
0.921875 0.136536 0.126831
0.045258 0.250031 0.000854
0.139465 0.283264 0.017487
0.271179 0.301422 0.026550
0.411438 0.312012 0.036377
0.546875 0.317535 0.047577
0.679993 0.321289 0.062195
0.797913 0.323120 0.078949
0.903259 0.322906 0.098480
0.077515 0.418213 0.006592
0.171265 0.447266 0.030548
0.301361 0.456329 0.040894
0.437286 0.462372 0.050903
0.569061 0.467010 0.061188
0.697144 0.470825 0.073303
0.808411 0.473938 0.086304
0.905823 0.476624 0.100464
0.116089 0.557800 0.015900
0.206390 0.580627 0.044250
0.336670 0.588104 0.056854
0.470917 0.592621 0.067047
0.597778 0.596191 0.077026
0.720184 0.599701 0.088318
0.827057 0.602966 0.096497
0.920837 0.605347 0.101257
0.161804 0.669861 0.027588
0.250793 0.689941 0.058258
0.378815 0.696960 0.072662
0.509186 0.701050 0.083405
0.631561 0.705170 0.090607
0.749146 0.710052 0.093933
0.848541 0.714417 0.096832
0.934174 0.717987 0.099854
0.215118 0.764435 0.041138
0.302368 0.783173 0.072693
0.424316 0.792328 0.085083
0.549438 0.799408 0.089447
0.665710 0.805359 0.092133
0.773010 0.810760 0.094391
0.864319 0.815613 0.097107
0.945038 0.820557 0.100067
0.269073 0.850586 0.051117
0.346832 0.872620 0.075653
0.464020 0.884460 0.085327
0.584045 0.892242 0.089600
0.692352 0.898529 0.092590
0.791840 0.904541 0.095276
0.877838 0.910339 0.097870
0.955109 0.917297 0.105072
0.017487 0.000031 0.048798
0.109192 0.002991 0.088287
0.229614 0.006653 0.100189
0.363068 0.011230 0.111908
0.500732 0.017242 0.123383
0.637054 0.024933 0.133270
0.759888 0.033905 0.138916
0.866577 0.043396 0.138153
0.032562 0.101868 0.090820
0.125183 0.124725 0.115173
0.253448 0.138458 0.133026
0.396606 0.148773 0.152985
0.546082 0.153259 0.175232
0.700134 0.141327 0.211090
0.827423 0.134277 0.236694
0.925964 0.144531 0.234833
0.056000 0.256470 0.110596
0.148071 0.291382 0.139465
0.280548 0.308899 0.153595
0.418671 0.317596 0.161530
0.553925 0.323120 0.170135
0.686432 0.327362 0.179077
0.803619 0.329895 0.187897
0.908295 0.330627 0.197449
0.089264 0.424835 0.123169
0.180634 0.452301 0.149902
0.310791 0.461487 0.159698
0.446564 0.467712 0.166534
0.577576 0.472504 0.172333
0.704742 0.476868 0.177368
0.815033 0.480804 0.181824
0.911682 0.484589 0.185364
0.128998 0.562317 0.120331
0.218689 0.585388 0.149597
0.348602 0.593262 0.159576
0.482208 0.598022 0.165985
0.607910 0.601990 0.170410
0.729187 0.606201 0.174316
0.835785 0.610229 0.170990
0.928619 0.613831 0.163879
0.177795 0.675293 0.109467
0.266449 0.695587 0.139496
0.393860 0.702942 0.151215
0.523285 0.707520 0.157532
0.644348 0.712799 0.156342
0.760437 0.718414 0.150574
0.858215 0.724396 0.137054
0.944244 0.730408 0.113281
0.238892 0.773682 0.067871
0.326202 0.792450 0.098541
0.445831 0.803925 0.098907
0.569122 0.811005 0.103058
0.681763 0.817017 0.105530
0.785980 0.822266 0.107697
0.875092 0.827423 0.110809
0.954498 0.832367 0.113678
0.291473 0.861481 0.063904
0.368866 0.883575 0.088654
0.484741 0.895508 0.098450
0.601746 0.903198 0.102753
0.706879 0.909668 0.106171
0.803650 0.915588 0.108826
0.888580 0.922058 0.113190
0.963989 0.928162 0.122406
0.035797 0.000092 0.106659
0.119537 0.002686 0.193329
0.237549 0.008026 0.215790
0.370331 0.013519 0.236969
0.506927 0.020142 0.257019
0.642517 0.028351 0.273529
0.763336 0.037262 0.282532
0.868469 0.046356 0.285461
0.056274 0.097900 0.197998
0.138611 0.127258 0.237610
0.264343 0.142761 0.265381
0.406952 0.153046 0.290955
0.555817 0.155823 0.316101
0.709747 0.140015 0.356049
0.830353 0.137787 0.376251
0.927704 0.147797 0.376404
0.076782 0.256653 0.235443
0.161957 0.295380 0.274384
0.291779 0.312469 0.291107
0.427124 0.320374 0.299469
0.561035 0.325897 0.308716
0.692108 0.329895 0.317841
0.807739 0.332001 0.327576
0.911011 0.332184 0.339081
0.108765 0.423401 0.259552
0.194183 0.452118 0.287842
0.321198 0.462708 0.299103
0.455383 0.469177 0.305328
0.584778 0.473999 0.310364
0.710236 0.478302 0.315491
0.818909 0.481995 0.320770
0.915344 0.484589 0.325806
0.145966 0.559387 0.263672
0.232269 0.584045 0.291931
0.359253 0.593018 0.301544
0.491028 0.598206 0.306641
0.614655 0.602325 0.310730
0.735168 0.606476 0.314026
0.839752 0.609924 0.314331
0.930481 0.612915 0.314819
0.192902 0.671631 0.261871
0.278778 0.693085 0.290192
0.403473 0.701416 0.300568
0.531067 0.706726 0.305359
0.650055 0.712158 0.306030
0.763824 0.717377 0.305786
0.858704 0.721893 0.305634
0.942352 0.725769 0.306732
0.247864 0.767059 0.257477
0.330719 0.787720 0.285095
0.447113 0.799164 0.293182
0.569855 0.806702 0.295715
0.681488 0.812866 0.296356
0.784943 0.818451 0.297424
0.873718 0.823975 0.299896
0.952728 0.829346 0.301361
0.295502 0.857025 0.245361
0.372284 0.879700 0.270569
0.486420 0.891998 0.280243
0.602264 0.900116 0.284760
0.706818 0.906799 0.288696
0.802887 0.913086 0.290771
0.888092 0.920654 0.301361
0.962891 0.926636 0.319092
0.054718 0.000244 0.174194
0.134827 0.001007 0.309662
0.248901 0.008514 0.340271
0.379761 0.015381 0.366821
0.515289 0.022980 0.389923
0.649689 0.031830 0.407257
0.767700 0.040894 0.413513
0.871765 0.050323 0.416870
0.082886 0.092773 0.316467
0.158142 0.126801 0.366058
0.280701 0.144501 0.399292
0.422150 0.154938 0.426086
0.567383 0.155945 0.448059
0.727905 0.131897 0.496521
0.834625 0.141815 0.499023
0.930695 0.151855 0.498413
0.103180 0.254364 0.361053
0.182678 0.296143 0.403748
0.306061 0.313232 0.419159
0.438934 0.322021 0.427826
0.570709 0.327881 0.436493
0.699707 0.332153 0.443817
0.813812 0.334320 0.452087
0.915527 0.334717 0.462189
0.134216 0.418518 0.383606
0.213989 0.450073 0.413422
0.336273 0.462921 0.425385
0.467621 0.470306 0.430634
0.594513 0.475555 0.434418
0.717804 0.480225 0.438019
0.824677 0.484222 0.442230
0.920776 0.485870 0.446381
0.170776 0.555115 0.388153
0.252716 0.581848 0.415588
0.374847 0.592651 0.425018
0.503326 0.598846 0.429230
0.624298 0.603455 0.432220
0.743408 0.607910 0.434143
0.845947 0.611328 0.435608
0.934509 0.614410 0.437469
0.216614 0.668213 0.385590
0.299500 0.690918 0.412140
0.419189 0.700928 0.422302
0.543030 0.707672 0.426117
0.659607 0.713348 0.427460
0.770050 0.718903 0.428558
0.863220 0.723236 0.430115
0.945648 0.727478 0.434357
0.271027 0.764282 0.380737
0.348022 0.787018 0.406372
0.460419 0.799469 0.415924
0.579803 0.807709 0.419647
0.688690 0.813965 0.421844
0.790009 0.819885 0.425873
0.877258 0.825470 0.430298
0.955505 0.832062 0.436707
0.312592 0.855957 0.370544
0.388062 0.879272 0.396484
0.498016 0.892273 0.408142
0.610291 0.900879 0.415497
0.712463 0.907867 0.421204
0.807678 0.914764 0.427917
0.891418 0.922089 0.446381
0.964874 0.928040 0.471252
0.074432 0.000458 0.249969
0.150970 0.001373 0.414307
0.263580 0.008026 0.465851
0.391785 0.016693 0.493958
0.525513 0.025452 0.515778
0.658356 0.035034 0.530029
0.773071 0.044403 0.533112
0.875946 0.054260 0.536102
0.112946 0.085968 0.440613
0.183746 0.123322 0.493256
0.301941 0.143372 0.526825
0.442139 0.153534 0.551422
0.584503 0.152100 0.571075
0.734680 0.135254 0.606506
0.839783 0.145599 0.607391
0.934479 0.156006 0.606232
0.132111 0.250763 0.482300
0.208313 0.294098 0.522919
0.324310 0.312073 0.536499
0.453735 0.322083 0.545410
0.582550 0.328735 0.552216
0.709198 0.333374 0.558167
0.821228 0.335785 0.565063
0.921356 0.336273 0.573883
0.163025 0.412262 0.498322
0.238617 0.446167 0.527710
0.354828 0.461609 0.539337
0.482300 0.470337 0.544250
0.606018 0.476410 0.547180
0.726746 0.481598 0.549957
0.831818 0.485931 0.553192
0.926941 0.486938 0.557922
0.199707 0.549652 0.501038
0.277924 0.578186 0.526794
0.393982 0.591217 0.536499
0.518250 0.598724 0.540527
0.636108 0.604156 0.542877
0.752808 0.609009 0.545502
0.852966 0.612732 0.548279
0.939362 0.615814 0.551666
0.245361 0.663696 0.497040
0.324768 0.687897 0.521942
0.438751 0.699615 0.532166
0.557129 0.708099 0.537048
0.670532 0.714417 0.539856
0.777374 0.720215 0.542542
0.868591 0.724701 0.545929
0.949707 0.729279 0.552338
0.297913 0.761169 0.491333
0.369568 0.785614 0.516541
0.477112 0.799438 0.528076
0.591919 0.808472 0.533691
0.697540 0.815002 0.537811
0.796173 0.821442 0.544220
0.881744 0.827332 0.549774
0.959167 0.835754 0.561584
0.335480 0.854309 0.483551
0.408691 0.878235 0.510254
0.512634 0.892334 0.524231
0.620667 0.901703 0.534363
0.719879 0.909058 0.541290
0.814056 0.917084 0.553497
0.895813 0.923981 0.575439
0.967773 0.929962 0.601318
0.094788 0.000763 0.331146
0.169739 0.001923 0.511780
0.280884 0.006683 0.583435
0.406036 0.017273 0.608582
0.537445 0.027313 0.626099
0.666412 0.037567 0.634247
0.779114 0.047485 0.636383
0.880585 0.057892 0.638214
0.146027 0.077332 0.561462
0.214447 0.116669 0.610107
0.328766 0.138885 0.640045
0.465393 0.148224 0.659454
0.609253 0.141724 0.681915
0.742188 0.138123 0.699799
0.845428 0.148834 0.699280
0.938629 0.159668 0.697693
0.163696 0.245483 0.591797
0.235931 0.288910 0.624969
0.345459 0.309387 0.638062
0.470734 0.320984 0.646515
0.596100 0.328369 0.651550
0.719757 0.333557 0.656403
0.829468 0.336517 0.662109
0.927795 0.337189 0.669952
0.193359 0.405426 0.599579
0.265930 0.440979 0.626343
0.376099 0.459137 0.637024
0.499207 0.469391 0.641571
0.618835 0.476257 0.644165
0.736420 0.482269 0.646362
0.840393 0.486267 0.650177
0.933502 0.487274 0.656342
0.230347 0.543518 0.599304
0.305389 0.573578 0.622467
0.415344 0.588898 0.632202
0.534546 0.597809 0.636353
0.649414 0.604248 0.639374
0.762604 0.609497 0.643799
0.859924 0.613739 0.648285
0.944550 0.616699 0.653534
0.275757 0.658722 0.593750
0.352325 0.684021 0.616516
0.458405 0.698364 0.627899
0.572571 0.707855 0.634735
0.682068 0.715057 0.639557
0.785248 0.721039 0.644287
0.874420 0.726013 0.650299
0.954193 0.730988 0.657593
0.324249 0.758209 0.588287
0.393585 0.783417 0.613556
0.495697 0.798737 0.627167
0.605194 0.808563 0.635101
0.707153 0.815887 0.641937
0.803101 0.822754 0.649658
0.886932 0.829163 0.656433
0.963287 0.838959 0.672455
0.361206 0.852203 0.584412
0.431335 0.876587 0.611603
0.529205 0.891876 0.628357
0.632355 0.902161 0.639862
0.728180 0.910034 0.647919
0.821075 0.918976 0.664825
0.900757 0.925781 0.686920
0.971222 0.931763 0.709717
0.116211 0.001099 0.415436
0.190521 0.002594 0.600403
0.300568 0.005005 0.687012
0.422516 0.017120 0.708618
0.551025 0.028534 0.721313
0.675201 0.039581 0.725067
0.786041 0.050323 0.726685
0.885864 0.061310 0.727081
0.183655 0.066040 0.673920
0.250916 0.106628 0.714539
0.363037 0.129395 0.740387
0.497314 0.135406 0.758331
0.637848 0.128143 0.780121
0.750671 0.140320 0.781525
0.851807 0.151764 0.780762
0.943329 0.163116 0.779236
0.196899 0.239380 0.687988
0.265900 0.281860 0.714264
0.369873 0.304932 0.727295
0.490509 0.318237 0.734863
0.611328 0.326813 0.739227
0.731689 0.332642 0.743744
0.838867 0.336121 0.749084
0.935364 0.336945 0.756836
0.225403 0.397949 0.689087
0.295532 0.434875 0.712524
0.399994 0.455322 0.722992
0.517761 0.467377 0.727753
0.633057 0.475494 0.730408
0.747131 0.482391 0.732880
0.849640 0.485901 0.738861
0.940643 0.487030 0.746613
0.262695 0.536926 0.686249
0.335236 0.568176 0.707184
0.439056 0.585724 0.717224
0.552856 0.596222 0.721985
0.663605 0.603638 0.727448
0.773285 0.609406 0.733826
0.867249 0.614136 0.740143
0.950226 0.617157 0.747101
0.308258 0.653229 0.680115
0.381714 0.679688 0.701172
0.480347 0.696320 0.714996
0.589417 0.707001 0.724030
0.694061 0.715027 0.730835
0.793854 0.721375 0.737579
0.880829 0.727081 0.745636
0.959259 0.732422 0.753571
0.352783 0.754608 0.676758
0.419647 0.780548 0.702026
0.516174 0.797302 0.717621
0.619934 0.808075 0.727844
0.717804 0.816284 0.737061
0.810669 0.823792 0.745605
0.893250 0.832001 0.755188
0.967926 0.841614 0.771515
0.389069 0.849579 0.676788
0.455688 0.874420 0.704071
0.547485 0.890900 0.722870
0.645172 0.902100 0.735443
0.739227 0.911407 0.746643
0.828857 0.920410 0.764374
0.906250 0.927429 0.784363
0.975098 0.933411 0.801422
0.138428 0.001556 0.499573
0.212952 0.003296 0.678833
0.319122 0.006226 0.767700
0.441162 0.016235 0.795441
0.565918 0.029114 0.803772
0.685211 0.041107 0.805481
0.793671 0.052795 0.806763
0.891693 0.064423 0.806152
0.229370 0.049438 0.777496
0.298035 0.089264 0.811066
0.414246 0.107178 0.836945
0.539490 0.114685 0.851440
0.650299 0.128876 0.854309
0.759979 0.142059 0.855103
0.858826 0.154297 0.854645
0.948517 0.166229 0.853546
0.232513 0.231506 0.772278
0.298126 0.273560 0.794067
0.397064 0.298950 0.806824
0.512299 0.314209 0.813690
0.628510 0.324005 0.818176
0.744995 0.330750 0.822876
0.849304 0.334717 0.828583
0.944794 0.334747 0.837982
0.258881 0.389923 0.769073
0.327148 0.427826 0.789459
0.426147 0.450653 0.800110
0.538391 0.464355 0.805420
0.648560 0.473816 0.808746
0.759552 0.481537 0.812256
0.859558 0.484955 0.821320
0.948303 0.486511 0.830872
0.296265 0.529877 0.764160
0.366638 0.562195 0.783569
0.464752 0.581787 0.794189
0.572998 0.593903 0.800293
0.678833 0.602264 0.809021
0.784546 0.608978 0.817444
0.875183 0.614014 0.825623
0.956512 0.617432 0.834320
0.341705 0.647400 0.758179
0.411743 0.675110 0.778931
0.503784 0.693512 0.795349
0.607452 0.705597 0.806610
0.707062 0.714417 0.815582
0.803192 0.721344 0.824371
0.887848 0.727722 0.833679
0.964783 0.733704 0.842163
0.382629 0.750610 0.758240
0.447205 0.777344 0.783905
0.537872 0.795349 0.801361
0.635590 0.807068 0.813721
0.729218 0.816254 0.824524
0.818909 0.824432 0.833893
0.900116 0.834869 0.845551
0.972900 0.844055 0.860321
0.418060 0.846344 0.761902
0.481384 0.871765 0.789581
0.567078 0.889435 0.809601
0.659180 0.901642 0.823151
0.751038 0.912628 0.836823
0.837097 0.921478 0.853241
0.912201 0.928741 0.869720
0.979279 0.934814 0.881409
