Teal Orange 01 - Classic.cube
#Created by: Adobe Photoshop Export Color Lookup Plugin
#Copyright: (C) Copyright 2019 Nicolesy
TITLE "Teal Orange 01 - Classic"
#LUT size
LUT_3D_SIZE 5
#data domain
#LUT data points
DOMAIN_MIN 0.000000 0.000000 0.000000
DOMAIN_MAX 0.903226 0.903226 0.903226
0.000000 0.000000 0.000000
0.193024 0.003662 0.002899
0.426208 0.010315 0.007263
0.663300 0.021545 0.016388
0.862244 0.035828 0.028351
0.037903 0.209473 0.000580
0.229553 0.254211 0.020874
0.475067 0.274933 0.039154
0.708771 0.281067 0.065369
0.906281 0.278625 0.103394
0.096283 0.492767 0.011017
0.284393 0.523468 0.046326
0.518799 0.532349 0.063873
0.736755 0.538788 0.083557
0.912659 0.543396 0.102020
0.174408 0.694855 0.030914
0.357269 0.720276 0.073547
0.580933 0.728363 0.089600
0.782043 0.737244 0.094788
0.937073 0.744263 0.099670
0.269073 0.850586 0.051117
0.433197 0.882019 0.083649
0.639496 0.895416 0.091064
0.814331 0.905975 0.095886
0.955109 0.917297 0.105072
0.031219 0.000092 0.091400
0.203644 0.006653 0.180908
0.436493 0.015930 0.214325
0.672791 0.029572 0.242218
0.867767 0.045349 0.250824
0.064453 0.214661 0.195770
0.246124 0.266113 0.248993
0.487213 0.282806 0.268982
0.718597 0.289215 0.289062
0.913086 0.287323 0.314514
0.120880 0.495026 0.228485
0.302734 0.528809 0.266083
0.534271 0.538361 0.275940
0.748016 0.545624 0.284119
0.921967 0.550293 0.288025
0.200836 0.697540 0.227448
0.380096 0.724579 0.265289
0.598633 0.735168 0.271149
0.792999 0.744598 0.270325
0.944641 0.752319 0.270996
0.292236 0.857391 0.210358
0.454712 0.889618 0.243073
0.654694 0.903564 0.249969
0.824585 0.914642 0.253174
0.962830 0.926666 0.274292
0.064331 0.000336 0.211578
0.225403 0.006470 0.395935
0.452515 0.020050 0.443451
0.685059 0.035919 0.472870
0.873779 0.052368 0.478302
0.111176 0.209656 0.412445
0.276825 0.269775 0.475677
0.506622 0.285736 0.492279
0.732056 0.292694 0.508240
0.921967 0.290527 0.529388
0.165405 0.486786 0.444977
0.331940 0.527679 0.482025
0.553925 0.540100 0.489441
0.761139 0.548523 0.494080
0.930725 0.552582 0.499146
0.243439 0.691498 0.441681
0.409943 0.723114 0.476105
0.617096 0.736877 0.482880
0.802582 0.746826 0.486511
0.950073 0.755157 0.495209
0.323608 0.855194 0.428375
0.476959 0.889587 0.465118
0.666779 0.905029 0.479858
0.832642 0.917969 0.496643
0.966248 0.928955 0.538879
0.100128 0.000854 0.352234
0.257080 0.003510 0.602753
0.474945 0.022461 0.644012
0.697693 0.040619 0.658600
0.881836 0.058807 0.661499
0.164948 0.201019 0.611145
0.316315 0.263977 0.659302
0.533600 0.284241 0.674347
0.750092 0.292725 0.685242
0.934570 0.290588 0.702759
0.218658 0.475433 0.623718
0.371552 0.522583 0.655426
0.579010 0.539520 0.662476
0.778229 0.549500 0.668243
0.940857 0.554352 0.677856
0.296387 0.683319 0.614655
0.445923 0.720673 0.647858
0.639465 0.737701 0.660828
0.814880 0.748688 0.670929
0.957642 0.758362 0.683746
0.368011 0.851593 0.608307
0.508240 0.888397 0.648956
0.683746 0.906372 0.669006
0.843842 0.921173 0.695984
0.972198 0.932220 0.734070
0.138428 0.001556 0.499573
0.289917 0.005432 0.751831
0.503387 0.022858 0.800476
0.713409 0.044067 0.805817
0.891693 0.064423 0.806152
0.225800 0.188141 0.771637
0.365448 0.252533 0.806122
0.567749 0.278107 0.819580
0.772858 0.288574 0.830078
0.952332 0.284973 0.849579
0.276520 0.462494 0.766937
0.418152 0.514526 0.795074
0.608643 0.536621 0.804169
0.797424 0.548279 0.816711
0.952209 0.554382 0.831818
0.354034 0.673950 0.756744
0.487885 0.715942 0.793274
0.664459 0.736633 0.812988
0.829102 0.749725 0.829224
0.966858 0.762299 0.845062
0.418060 0.846344 0.761902
0.544373 0.885620 0.805359
0.705292 0.906982 0.829376
0.856781 0.923401 0.857391
0.979279 0.934814 0.881409
